assets/icons/emote/worried.svg

<?xml version="1.0" encoding="UTF-8" standalone="no"?>
<svg viewBox="0 0 24 24" width="24" height="24" version="1.1" id="svg835" sodipodi:docname="worried.svg" inkscape:version="1.1 (ce6663b3b7, 2021-05-25)"
   xmlns:inkscape="http://www.inkscape.org/namespaces/inkscape"
   xmlns:sodipodi="http://sodipodi.sourceforge.net/DTD/sodipodi-0.dtd"
   xmlns="http://www.w3.org/2000/svg"
   xmlns:svg="http://www.w3.org/2000/svg"
   xmlns:rdf="http://www.w3.org/1999/02/22-rdf-syntax-ns#"
   xmlns:cc="http://creativecommons.org/ns#"
   xmlns:dc="http://purl.org/dc/elements/1.1/">
   <metadata id="metadata841">
      <rdf:RDF>
         <cc:Work rdf:about="">
            <dc:format>image/svg+xml</dc:format>
            <dc:type rdf:resource="http://purl.org/dc/dcmitype/StillImage" />
         </cc:Work>
      </rdf:RDF>
   </metadata>
   <defs id="defs839" />
   <sodipodi:namedview pagecolor="#ffffff" bordercolor="#666666" borderopacity="1" objecttolerance="10" gridtolerance="10" guidetolerance="10" inkscape:pageopacity="0" inkscape:pageshadow="2" inkscape:window-width="1920" inkscape:window-height="1016" id="namedview837" showgrid="false" inkscape:zoom="19.445436" inkscape:cx="-1.054232" inkscape:cy="4.8083262" inkscape:window-x="0" inkscape:window-y="27" inkscape:window-maximized="1" inkscape:current-layer="svg835" inkscape:pagecheckerboard="0" />
   <path d="m 17.624994,16.182397 c -0.86175,-0.4815 -1.8135,-1.035 -2.7855,-1.0575 -0.7335,0.0225 -1.393875,0.73575 -1.7145,0.784125 -0.60975,0.35325 -1.755,0.2205 -2.249999,0 -1.0316255,-0.491625 -1.0361255,-0.765 -1.7358754,-0.7875 -0.9596249,0.02137 -2.0609998,0.4545 -2.7641248,1.060875 v -0.5625 c 0.47475,-1.22175 2.6774998,-2.300624 4.5000002,-0.979875 0.393749,0.2475 0.480374,0.300375 1.141874,0.379125 0.18,0.06188 0.666,-0.03825 1.108125,-0.379125 1.77975,-1.297124 3.7035,-0.133875 4.5,0.97875 z" id="path1442" style="fill:#808080;fill-opacity:1;stroke-width:0.999999" />
   <path style="display:inline;fill:#808080;fill-opacity:1;stroke:none;stroke-width:1" d="m 15.125026,7.6250151 c 0.697913,0 1.25,0.59115 1.25,1.2890624 v 1.2109375 c 0,0.697912 -0.552087,1.25 -1.25,1.25 -0.697914,0 -1.250001,-0.552088 -1.250001,-1.25 v -1.2109375 c 0,-0.6979124 0.552087,-1.2890624 1.250001,-1.2890624 z" id="path985" />
   <path style="display:inline;fill:#808080;fill-opacity:1;stroke:none;stroke-width:1" d="m 8.835937,7.6054839 c 0.6979124,0 1.289062,0.59115 1.289062,1.2890624 v 1.2109377 c 0,0.697912 -0.5911496,1.25 -1.289062,1.25 -0.6979124,0 -1.2499999,-0.552088 -1.2499999,-1.25 v -1.2109377 c 0,-0.6979124 0.5520875,-1.2890624 1.2499999,-1.2890624 z" id="path983" />
   <path id="path993" style="fill:#808080;fill-opacity:1;fill-rule:evenodd;stroke:none;stroke-width:0.75;stroke-linecap:square;stroke-linejoin:round;stroke-opacity:1" d="m 11.953614,2.6250154 a 9.3749993,9.3749993 0 0 0 -9.328614,9.3749996 9.3749993,9.3749993 0 0 0 9.375,9.374998 9.3749993,9.3749993 0 0 0 9.375,-9.374998 9.3749993,9.3749993 0 0 0 -9.375,-9.3749996 9.3749993,9.3749993 0 0 0 -0.04639,0 z m 0.04639,1.2499999 a 8.1249994,8.1249994 0 0 1 8.124999,8.1249997 8.1249994,8.1249994 0 0 1 -8.124999,8.124998 8.1249994,8.1249994 0 0 1 -8.1250004,-8.124998 8.1249994,8.1249994 0 0 1 8.1250004,-8.1249997 z" />
</svg>

<svg width="24" height="24" xmlns="http://www.w3.org/2000/svg"><path d="M17.625 16.182c-.862-.481-1.814-1.035-2.786-1.057-.733.022-1.393.736-1.714.784-.61.353-1.755.22-2.25 0-1.032-.492-1.036-.765-1.736-.787-.96.02-2.06.454-2.764 1.06v-.562c.475-1.222 2.677-2.3 4.5-.98.394.248.48.3 1.142.38.18.061.666-.04 1.108-.38 1.78-1.297 3.703-.134 4.5.979z" style="fill:gray;fill-opacity:1;stroke-width:.999999"/><path style="display:inline;fill:gray;fill-opacity:1;stroke:none;stroke-width:1" d="M15.125 7.625c.698 0 1.25.591 1.25 1.29v1.21a1.24 1.24 0 0 1-1.25 1.25 1.24 1.24 0 0 1-1.25-1.25v-1.21c0-.699.552-1.29 1.25-1.29zm-6.289-.02c.698 0 1.289.592 1.289 1.29v1.21c0 .698-.591 1.25-1.29 1.25a1.24 1.24 0 0 1-1.25-1.25v-1.21c0-.698.553-1.29 1.25-1.29z"/><path style="fill:gray;fill-opacity:1;stroke:none;stroke-width:.75;stroke-linecap:square;stroke-linejoin:round;stroke-opacity:1" d="M11.954 2.625A9.375 9.375 0 0 0 2.625 12 9.375 9.375 0 0 0 12 21.375 9.375 9.375 0 0 0 21.375 12 9.375 9.375 0 0 0 12 2.625a9.375 9.375 0 0 0-.046 0zM12 3.875A8.125 8.125 0 0 1 20.125 12 8.125 8.125 0 0 1 12 20.125 8.125 8.125 0 0 1 3.875 12 8.125 8.125 0 0 1 12 3.875z"/></svg>
